preferences/22/preferences-web-browser-ssl.svg

<svg width="22" height="22" version="1.1" viewBox="0 0 22 22" xmlns="http://www.w3.org/2000/svg" xmlns:xlink="http://www.w3.org/1999/xlink">
<defs>
<linearGradient id="linearGradient3403" x1="6.9492" x2="11.215" y1="4.5549" y2="59.052" gradientUnits="userSpaceOnUse">
<stop style="stop-color:#32373c" offset="0"/>
<stop style="stop-color:#1a1a1a" offset=".36805"/>
<stop style="stop-color:#31363b" offset="1"/>
</linearGradient>
<linearGradient id="linearGradient20558" x1="25.802" x2="25.111" y1="20.374" y2="58.913" gradientUnits="userSpaceOnUse">
<stop style="stop-color:#3d3d3d" offset="0"/>
<stop offset=".61772"/>
<stop style="stop-color:#3d3d3d" offset="1"/>
</linearGradient>
<linearGradient id="linearGradient4557" x1="43.5" x2="44.142" y1="64.012" y2=".30621" gradientTransform="translate(.36068 -.13017)" gradientUnits="userSpaceOnUse">
<stop style="stop-color:#141618" offset="0"/>
<stop style="stop-color:#686868" offset=".51821"/>
<stop style="stop-color:#31363b" offset="1"/>
</linearGradient>
<linearGradient id="linearGradient919" x1="7.4006" x2="33.063" y1="41.743" y2="7.1074" gradientTransform="matrix(.44277 0 0 .44277 .42197 .35254)" gradientUnits="userSpaceOnUse">
<stop style="stop-opacity:.99608" offset="0"/>
<stop style="stop-color:#353a3f;stop-opacity:.99608" offset="1"/>
</linearGradient>
<linearGradient id="b" x1="6" x2="26" y1="6" y2="26" gradientUnits="userSpaceOnUse" xlink:href="#a"/>
<linearGradient id="a">
<stop stop-color="#292c2f" offset="0"/>
<stop stop-opacity="0" offset="1"/>
</linearGradient>
<linearGradient id="c" x1="23" x2="30" y1="13" y2="20" gradientUnits="userSpaceOnUse" xlink:href="#a"/>
<linearGradient id="d" x1="2" x2="2" y1="30" y2="2" gradientUnits="userSpaceOnUse">
<stop stop-color="#a5a5a5" offset="0"/>
<stop stop-color="#f5f2f5" offset="1"/>
</linearGradient>
<linearGradient id="e" x1="13" x2="25" y1="13" y2="25" gradientUnits="userSpaceOnUse" xlink:href="#a"/>
<linearGradient id="f" x1="11" x2="11" y1="22" y2="9" gradientUnits="userSpaceOnUse">
<stop stop-color="#ffd42a" offset="0"/>
<stop stop-color="#ffdf62" offset="1"/>
</linearGradient>
</defs>
<rect x="1.8224" y="1.689" width="18.634" height="18.912" ry="0" style="fill-rule:evenodd;fill:url(#linearGradient919)"/>
<g transform="matrix(.67213 0 0 .67213 .91445 -.066393)">
<rect x="2" y="2" width="28" height="28" rx="14" fill="#4f575f"/>
<path d="m18.594 2.248-2.975 0.38-4.135 2.388-1.502 2.601s-1.973 1.39-2.271 1.31c-2.517-0.029-3.869 0.665-4.58 1.548-0.301 0.703-0.537 1.44-0.72 2.197-6e-3 0.76 0.161 1.351 0.161 1.351 7.06 6.357 14.121 9.097 21.182 13.643a13.9 13.9 0 0 0 1.275-0.959l0.069-0.06c0.36-0.308 0.703-0.636 1.029-0.979 0.072-0.076 0.14-0.155 0.21-0.232a13.928 13.928 0 0 0 1.749-2.375l0.055-0.09a13.991 13.991 0 0 0 1.824-6.282l2e-3 -0.02v-1e-3l-1.824-7.638a13.95 13.95 0 0 0-9.55-6.783z" fill="url(#b)" fill-rule="evenodd" opacity=".2" style="fill:url(#b)"/>
<path d="m29.012 10.842-4.307 6.66 4.12 4.12a13.997 13.997 0 0 0 0.187-10.78z" fill="url(#c)" fill-rule="evenodd" opacity=".2" style="fill:url(#c)"/>
<path d="m16 2a14 14 0 0 0-13.059 9h0.059l3-1 2 2v-2l2-1v-1l2-1 2-2v1l1-1-1-1h2v1l2-1-1-1v-0.95a14 14 0 0 0-1-0.05zm10.375 4.625-0.375 0.375v1h1.469a14 14 0 0 0-1.094-1.375zm1.316 1.684-3.691 3.691-1 3v1l2 2 2 1 2.791-0.688a14 14 0 0 0 0.209-2.312 14 14 0 0 0-2.309-7.691zm-23.691 4.691-1 1h-0.838c-0.05 0.34-0.088 0.681-0.113 1.023v2e-3l1.951 0.975 1 1 2 1 1 1-1 1v2l1 2 2 2v2.629a14 14 0 0 0 6 1.371c0.17-3e-3 0.34-9e-3 0.51-0.018l0.49-0.982v-1l2-1 1-1v-2l1-1v-1l-1-1-3-1-2-2h-1l-1-1-3-1-2 1h-2v-2h-1v-2z" fill="url(#d)" style="fill:url(#d)"/>
<path d="m15 10-1 1v4h-3v7l7.73 7.73a13.926 13.926 0 0 0 8.413-5.26l2e-3 -1e-3a13.999 13.999 0 0 0 0.941-1.409l0.037-0.058 0.018-0.031c0.35-0.614 0.638-1.267 0.894-1.936l-11.035-11.035h-2z" fill="url(#e)" fill-rule="evenodd" opacity=".2" style="fill:url(#e)"/>
<path d="m16 9c-1.662 0-3 1.338-3 3v3h-2v7h10v-7h-2v-3c0-1.662-1.338-3-3-3zm0 1c1.246 0 2 0.546 2 2v3h-4v-3c0-1.454 0.754-2 2-2z" fill="url(#f)" style="fill:url(#f)"/>
<path d="M 29.979,15.414 A 14,14 0 0 1 16,29 14,14 0 0 1 2.021,15.586 14,14 0 0 0 2,16 14,14 0 0 0 16,30 14,14 0 0 0 30,16 14,14 0 0 0 29.979,15.414 Z" fill="#292c2f" opacity=".3"/>
</g>
<path transform="matrix(.33291 0 0 .33291 .46612 .36355)" d="m4.7043 3.9815-0.012938 56.82h53.904l1.0222-2.8664s-23.875 0.76639-32.844-4.1404c-10.516-5.7529-15.372-49.697-15.372-49.697z" style="fill:url(#linearGradient3403);mix-blend-mode:normal;stroke-linejoin:round;stroke-width:1.1624;stroke:url(#linearGradient20558)"/>
<rect transform="matrix(.31187 0 0 .31123 1.0255 1.0363)" x="1.0324" y=".59551" width="62.567" height="62.867" rx="5.803" ry="6.2447" style="fill:none;stroke-linejoin:round;stroke-miterlimit:7.8;stroke-opacity:.99515;stroke-width:3.7137;stroke:url(#linearGradient4557)"/>
</svg>

<?xml version="1.0" encoding="UTF-8" standalone="no"?>
<!-- Created with Inkscape (http://www.inkscape.org/) -->

<svg
   width="22"
   height="22"
   version="1.1"
   viewBox="0 0 22 22"
   id="svg22"
   sodipodi:docname="preferences-web-browser-ssl.svg"
   inkscape:version="1.1.2 (0a00cf5339, 2022-02-04)"
   xmlns:inkscape="http://www.inkscape.org/namespaces/inkscape"
   xmlns:sodipodi="http://sodipodi.sourceforge.net/DTD/sodipodi-0.dtd"
   xmlns:xlink="http://www.w3.org/1999/xlink"
   xmlns="http://www.w3.org/2000/svg"
   xmlns:svg="http://www.w3.org/2000/svg">
  <sodipodi:namedview
     id="namedview24"
     pagecolor="#ffffff"
     bordercolor="#666666"
     borderopacity="1.0"
     inkscape:showpageshadow="2"
     inkscape:pageopacity="0.0"
     inkscape:pagecheckerboard="0"
     inkscape:deskcolor="#d1d1d1"
     showgrid="false"
     inkscape:zoom="18.116076"
     inkscape:cx="-2.6495804"
     inkscape:cy="19.264658"
     inkscape:window-width="3440"
     inkscape:window-height="1356"
     inkscape:window-x="0"
     inkscape:window-y="0"
     inkscape:window-maximized="1"
     inkscape:current-layer="svg22"
     inkscape:pageshadow="2" />
  <defs
     id="defs12">
    <linearGradient
       inkscape:collect="always"
       id="linearGradient917">
      <stop
         style="stop-color:#000000;stop-opacity:0.99607843"
         offset="0"
         id="stop913" />
      <stop
         style="stop-color:#353a3f;stop-opacity:0.99607843"
         offset="1"
         id="stop915" />
    </linearGradient>
    <linearGradient
       id="linearGradient1005-3-3"
       x1="5.2535"
       x2="9.3823996"
       y1="15.383"
       y2="2.9421"
       gradientTransform="matrix(0.99999,0,0,0.99999,1.632,-0.61743)"
       gradientUnits="userSpaceOnUse">
      <stop
         stop-color="#fa8200"
         offset="0"
         id="stop2" />
      <stop
         stop-color="#ff9600"
         offset=".36953"
         id="stop4" />
      <stop
         stop-color="#ffb400"
         offset="1"
         id="stop6" />
    </linearGradient>
    <filter
       id="filter4014"
       x="-0.062499933"
       y="-0.057692993"
       width="1.1249999"
       height="1.115386"
       color-interpolation-filters="sRGB">
      <feGaussianBlur
         stdDeviation="1.093751"
         id="feGaussianBlur9" />
    </filter>
    <linearGradient
       inkscape:collect="always"
       xlink:href="#linearGradient3487"
       id="linearGradient3403"
       gradientUnits="userSpaceOnUse"
       x1="6.9491749"
       y1="4.5549412"
       x2="11.215498"
       y2="59.052471" />
    <linearGradient
       id="linearGradient3487">
      <stop
         style="stop-color:#32373c;stop-opacity:1"
         offset="0"
         id="stop3481" />
      <stop
         id="stop3483"
         offset="0.36804965"
         style="stop-color:#1a1a1a;stop-opacity:1" />
      <stop
         style="stop-color:#31363b;stop-opacity:1"
         offset="1"
         id="stop3485" />
    </linearGradient>
    <linearGradient
       inkscape:collect="always"
       xlink:href="#linearGradient20604"
       id="linearGradient20558"
       gradientUnits="userSpaceOnUse"
       x1="25.802212"
       y1="20.373846"
       x2="25.111048"
       y2="58.912758" />
    <linearGradient
       id="linearGradient20604">
      <stop
         id="stop20598"
         offset="0"
         style="stop-color:#3d3d3d;stop-opacity:1" />
      <stop
         style="stop-color:#000000;stop-opacity:1"
         offset="0.61772454"
         id="stop20600" />
      <stop
         id="stop20602"
         offset="1"
         style="stop-color:#3d3d3d;stop-opacity:1" />
    </linearGradient>
    <filter
       inkscape:collect="always"
       style="color-interpolation-filters:sRGB"
       id="filter20720"
       x="-0.017024755"
       y="-0.016457183"
       width="1.0340491"
       height="1.0329144">
      <feGaussianBlur
         inkscape:collect="always"
         stdDeviation="0.14745661"
         id="feGaussianBlur20722" />
    </filter>
    <linearGradient
       gradientTransform="translate(0.36067797,-0.13016949)"
       xlink:href="#linearGradient4555"
       id="linearGradient4557"
       x1="43.499737"
       y1="64.011795"
       x2="44.141731"
       y2="0.30621234"
       gradientUnits="userSpaceOnUse" />
    <linearGradient
       id="linearGradient4555">
      <stop
         style="stop-color:#141618;stop-opacity:1"
         offset="0"
         id="stop4551" />
      <stop
         id="stop4559"
         offset="0.51820582"
         style="stop-color:#686868;stop-opacity:1" />
      <stop
         style="stop-color:#31363b;stop-opacity:1"
         offset="1"
         id="stop4553" />
    </linearGradient>
    <filter
       style="color-interpolation-filters:sRGB"
       id="filter4601"
       x="-0.030244762"
       width="1.0604895"
       y="-0.030100647"
       height="1.0602013">
      <feGaussianBlur
         stdDeviation="0.014790289"
         id="feGaussianBlur4603" />
    </filter>
    <linearGradient
       inkscape:collect="always"
       xlink:href="#linearGradient917"
       id="linearGradient919"
       x1="7.400631"
       y1="41.743092"
       x2="33.063145"
       y2="7.1074457"
       gradientUnits="userSpaceOnUse"
       gradientTransform="matrix(0.44277239,0,0,0.44277239,0.4219709,0.35253557)" />
    <linearGradient
       id="b"
       gradientUnits="userSpaceOnUse"
       x1="6"
       x2="26"
       xlink:href="#a"
       y1="6"
       y2="26" />
    <linearGradient
       id="a">
      <stop
         offset="0"
         stop-color="#292c2f"
         id="stop3" />
      <stop
         offset="1"
         stop-opacity="0"
         id="stop5" />
    </linearGradient>
    <linearGradient
       id="c"
       gradientUnits="userSpaceOnUse"
       x1="23"
       x2="30"
       xlink:href="#a"
       y1="13"
       y2="20" />
    <linearGradient
       id="d"
       gradientUnits="userSpaceOnUse"
       x1="2"
       x2="2"
       y1="30"
       y2="2">
      <stop
         offset="0"
         stop-color="#a5a5a5"
         id="stop9" />
      <stop
         offset="1"
         stop-color="#f5f2f5"
         id="stop11" />
    </linearGradient>
    <linearGradient
       id="e"
       gradientUnits="userSpaceOnUse"
       x1="13"
       x2="25"
       xlink:href="#a"
       y1="13"
       y2="25" />
    <linearGradient
       id="f"
       gradientUnits="userSpaceOnUse"
       x1="11"
       x2="11"
       y1="22"
       y2="9">
      <stop
         offset="0"
         stop-color="#ffd42a"
         id="stop14" />
      <stop
         offset="1"
         stop-color="#ffdf62"
         id="stop16" />
    </linearGradient>
  </defs>
  <rect
     style="display:inline;fill:url(#linearGradient919);fill-opacity:1;fill-rule:evenodd;stroke:none;stroke-width:0.410813;stroke-linejoin:round;stroke-miterlimit:7.8"
     id="rect1192"
     width="18.6339"
     height="18.911741"
     x="1.8224202"
     y="1.6890396"
     ry="0"
     inkscape:label="arriere" />
  <g
     id="g862"
     transform="matrix(0.67213238,0,0,0.67213238,0.91444941,-0.06639306)">
    <rect
       fill="#4f575f"
       height="28"
       rx="14"
       width="28"
       x="2"
       y="2"
       id="rect20" />
    <path
       d="m 18.594,2.248 -2.975,0.38 -4.135,2.388 -1.502,2.601 c 0,0 -1.973,1.39 -2.271,1.31 -2.517,-0.029 -3.869,0.665 -4.58,1.548 -0.301,0.703 -0.537,1.44 -0.72,2.197 -0.006,0.76 0.161,1.351 0.161,1.351 7.06,6.357 14.121,9.097 21.182,13.643 a 13.9,13.9 0 0 0 1.275,-0.959 l 0.069,-0.06 c 0.36,-0.308 0.703,-0.636 1.029,-0.979 0.072,-0.076 0.14,-0.155 0.21,-0.232 a 13.928,13.928 0 0 0 1.749,-2.375 l 0.055,-0.09 a 13.991,13.991 0 0 0 1.824,-6.282 l 0.002,-0.02 V 16.668 L 28.143,9.03 a 13.95,13.95 0 0 0 -9.55,-6.783 z"
       fill="url(#b)"
       fill-rule="evenodd"
       opacity="0.2"
       id="path22"
       style="fill:url(#b)" />
    <path
       d="m 29.012,10.842 -4.307,6.66 4.12,4.12 a 13.997,13.997 0 0 0 0.187,-10.78 z"
       fill="url(#c)"
       fill-rule="evenodd"
       opacity="0.2"
       id="path24"
       style="fill:url(#c)" />
    <path
       d="M 16,2 A 14,14 0 0 0 2.941,11 H 3 l 3,-1 1,1 1,1 V 10 L 10,9 V 8 L 12,7 14,5 V 6 L 15,5 14,4 h 2 V 5 L 18,4 17,3 V 2.05 A 14,14 0 0 0 16,2 Z M 26.375,6.625 26,7 v 1 h 1.469 A 14,14 0 0 0 26.375,6.625 Z M 27.691,8.309 27,9 l -2,2 -1,1 -1,3 v 1 l 1,1 1,1 2,1 2.791,-0.688 A 14,14 0 0 0 30,16 14,14 0 0 0 27.691,8.309 Z M 4,13 3,14 H 2.162 c -0.05,0.34 -0.088,0.681 -0.113,1.023 v 0.002 L 4,16 l 1,1 2,1 1,1 -1,1 v 2 l 1,2 2,2 v 2.629 A 14,14 0 0 0 16,30 c 0.17,-0.003 0.34,-0.009 0.51,-0.018 L 17,29 v -1 l 2,-1 1,-1 v -2 l 1,-1 V 22 L 20,21 17,20 16,19 15,18 H 14 L 13,17 10,16 8,17 H 6 V 15 H 5 v -2 z"
       fill="url(#d)"
       id="path26"
       style="fill:url(#d)" />
    <path
       d="m 15,10 -1,1 v 4 h -3 v 7 l 7.73,7.73 a 13.926,13.926 0 0 0 8.413,-5.26 l 0.002,-10e-4 a 13.999,13.999 0 0 0 0.941,-1.409 l 0.037,-0.058 0.018,-0.031 c 0.35,-0.614 0.638,-1.267 0.894,-1.936 L 18,10 h -2 z"
       fill="url(#e)"
       fill-rule="evenodd"
       opacity="0.2"
       id="path28"
       style="fill:url(#e)" />
    <path
       d="m 16,9 c -1.662,0 -3,1.338 -3,3 v 3 h -2 v 7 H 21 V 15 H 19 V 12 C 19,10.338 17.662,9 16,9 Z m 0,1 c 1.246,0 2,0.546 2,2 v 3 h -4 v -3 c 0,-1.454 0.754,-2 2,-2 z"
       fill="url(#f)"
       id="path30"
       style="fill:url(#f)" />
    <path
       d="M 29.979,15.414 A 14,14 0 0 1 16,29 14,14 0 0 1 2.021,15.586 14,14 0 0 0 2,16 14,14 0 0 0 16,30 14,14 0 0 0 30,16 14,14 0 0 0 29.979,15.414 Z"
       fill="#292c2f"
       opacity="0.3"
       id="path32" />
  </g>
  <path
     style="display:inline;mix-blend-mode:normal;fill:url(#linearGradient3403);fill-opacity:1;stroke:url(#linearGradient20558);stroke-width:1.16242;stroke-linecap:butt;stroke-linejoin:round;stroke-miterlimit:4;stroke-dasharray:none;stroke-opacity:1;filter:url(#filter20720)"
     d="M 4.7043071,3.9814882 4.6913695,60.80196 H 58.59546 l 1.022155,-2.866369 c 0,0 -23.87537,0.766388 -32.844441,-4.140386 C 16.257548,48.042344 11.401114,4.0978197 11.401114,4.0978197 Z"
     id="path1686"
     sodipodi:nodetypes="ccccscc"
     transform="matrix(0.33291157,0,0,0.33291157,0.46611738,0.36355456)"
     inkscape:label="folder" />
  <rect
     style="display:inline;fill:none;fill-opacity:1;stroke:url(#linearGradient4557);stroke-width:3.71366;stroke-linejoin:round;stroke-miterlimit:7.8;stroke-dasharray:none;stroke-opacity:0.995146;filter:url(#filter4601)"
     id="rect4539"
     width="62.567089"
     height="62.866646"
     x="1.0323594"
     y="0.59551275"
     ry="6.2447233"
     rx="5.8029528"
     transform="matrix(0.31186581,0,0,0.31123016,1.0254629,1.0362675)"
     inkscape:label="contour" />
</svg>
